X: 31629
T: Papa's Pet
R: reel
M: 4/4
K: Edorian
|:B,EE2 FDD2|FDAD BDAD|B,EE2 FDDE|FDAF FEED|
B,EEG FDDE|FAA2 BAFB|AFAB d3c|dBAF FEE2:|
|:Bee2 dBAF|E2DE FAA2|Beed e2de|fdd2 fdd2|
efde BdAF|E2DE FAA2|B3c d2fe|dBAF FEE2:|

